X:1
T: The Gudgeon of Maurice's Car
C:
R:Jig
Q:180
K:G
M:6/8
L:1/16
dc|B2A2G2 B2c2d2|e2d2c2 B2c2d2|B2A2G2 B2c2d2|e2c2A2A4dc|B2A2G2 B2c2d2|e2d2c2 B2c2d2|efg2d2 e2c2A2|B2G2G2G4dc|
B2A2G2 B2c2d2|e2d2c2 B2c2d2|B2A2G2 B2c2d2|e2c2A2A4dc|B2A2G2 B2c2d2|e2d2c2 B2c2d2|efg2d2 e2c2A2|B2G2G2G4G2|
G2B2d2g4d2|e2d2c2 B2c2d2|G2B2d2g4d2|e2c2A2A4dc|B2A2G2g4d2|e2d2c2 B2c2d2|efg2d2 e2c2A2|B2G2G2G4G2|
G2B2d2g4d2|e2d2c2 B2c2d2|G2B2d2g4|e2c2A2A4dc|B2A2G2g4d2|e2d2c2 B2c2d2|efg2d2 e2c2A2|B2G2G2G4||
